packages/sources/icons/src/vitamix/mail-send-fill.svg

<svg width="16" height="16" viewBox="0 0 16 16" xmlns="http://www.w3.org/2000/svg"><path fill-rule="evenodd" clip-rule="evenodd" d="M1.33333 3.66667V2.662C1.33587 2.2977 1.63037 2.00291 1.99467 2H14.0053C14.3707 2 14.6667 2.29667 14.6667 2.662V13.338C14.6641 13.7023 14.3696 13.9971 14.0053 14H1.99467C1.62931 13.9996 1.33333 13.7034 1.33333 13.338V12.6667H13.3333V4.86667L8 9.66667L1.33333 3.66667ZM0 6.66667H3.33333V8H0V6.66667ZM5.33333 10H0V11.3333H5.33333V10Z"/></svg>

<svg width="16" height="16" xmlns="http://www.w3.org/2000/svg"><path fill-rule="evenodd" clip-rule="evenodd" d="M1.333 3.667V2.662A.667.667 0 0 1 1.995 2h12.01c.366 0 .662.297.662.662v10.676a.667.667 0 0 1-.662.662H1.995a.662.662 0 0 1-.662-.662v-.671h12v-7.8L8 9.667l-6.667-6ZM0 6.667h3.333V8H0V6.667ZM5.333 10H0v1.333h5.333V10Z"/></svg>
